svgs/thin/camera-web.svg

<svg xmlns="http://www.w3.org/2000/svg" viewBox="0 0 448 512"><!--! Font Awesome Pro 6.3.0 by @fontawesome - https://fontawesome.com License - https://fontawesome.com/license (Commercial License) Copyright 2023 Fonticons, Inc. --><path d="M160 232c4.406 0 8-3.594 8-8c0-30.88 25.12-56 56-56c4.406 0 8-3.594 8-8S228.4 152 224 152C184.3 152 152 184.3 152 224C152 228.4 155.6 232 160 232zM366.1 442.8c-2.812-3.312-7.875-3.75-11.28-.8438c-3.344 2.875-3.719 7.906-.8438 11.28L390.6 496H57.41l36.66-42.78c2.875-3.375 2.5-8.406-.8438-11.28c-3.375-2.906-8.406-2.469-11.28 .8438l-48 56c-2.031 2.375-2.5 5.719-1.219 8.562C34.03 510.2 36.88 512 40 512h368c3.125 0 5.969-1.812 7.281-4.656c1.281-2.844 .8125-6.188-1.219-8.562L366.1 442.8zM224 368c79.4 0 144-64.6 144-144S303.4 80 224 80S80 144.6 80 224S144.6 368 224 368zM224 96c70.69 0 127.9 57.31 127.9 128s-57.31 128-128 128s-128-57.31-128-128S153.3 96 224 96zM224 448c123.5 0 224-100.5 224-223.1s-100.5-224-224-224s-224 100.5-224 224S100.5 448 224 448zM224 16c114.7 0 208 93.31 208 208s-93.31 208-208 208S16 338.7 16 224S109.3 16 224 16z"/></svg>

<svg xmlns="http://www.w3.org/2000/svg" viewBox="0 0 448 512"><!-- Font Awesome Pro 6.0.0-alpha2 by @fontawesome - https://fontawesome.com License - https://fontawesome.com/license (Commercial License) --><path d="M160 232C164.406 232 168 228.406 168 224C168 193.125 193.125 168 224 168C228.406 168 232 164.406 232 160S228.406 152 224 152C184.312 152 152 184.312 152 224C152 228.406 155.594 232 160 232ZM366.062 442.781C363.25 439.469 358.187 439.031 354.781 441.938C351.437 444.813 351.062 449.844 353.937 453.219L390.594 496H57.406L94.062 453.219C96.938 449.844 96.562 444.812 93.219 441.937C89.844 439.031 84.812 439.469 81.937 442.781L33.937 498.781C31.906 501.156 31.437 504.5 32.719 507.344C34.031 510.188 36.875 512 40 512H408C411.125 512 413.969 510.188 415.281 507.344C416.563 504.5 416.094 501.156 414.063 498.781L366.062 442.781ZM224 368C303.402 368 368 303.402 368 224S303.402 80 224 80S80 144.598 80 224S144.598 368 224 368ZM224 96C294.693 96 352 153.307 352 224S294.693 352 224 352S96 294.693 96 224S153.307 96 224 96ZM224 448C347.5 448 448 347.5 448 224S347.5 0 224 0S0 100.5 0 224S100.5 448 224 448ZM224 16C338.688 16 432 109.312 432 224S338.688 432 224 432S16 338.688 16 224S109.312 16 224 16Z"/></svg>
